lib/brands/icons/apple-tv.svg

<svg xmlns="http://www.w3.org/2000/svg" fill="none" aria-hidden="true" viewBox="0 0 48 48"><g id="apple-tv-Icon"><path id="Vector" fill="black" d="M14.7802 17.3051C14.097 18.1216 12.9805 18.7716 11.8973 18.6882C11.7306 17.5717 12.2806 16.4052 12.9138 15.672C13.6304 14.8554 14.8135 14.2555 15.7967 14.2055C15.9134 15.3387 15.4468 16.4885 14.7802 17.3051V17.3051ZM26.649 31.3115C26.8823 31.6115 27.3156 31.7614 27.8989 31.7614C28.2488 31.7614 28.7321 31.6948 29.3653 31.5615V33.4446C28.5321 33.6779 27.6656 33.7945 26.7823 33.7945C24.7326 33.7945 23.7161 32.628 23.7161 30.3116V20.0797H21.9497V18.2133H23.8161V15.797L26.2824 14.7971V18.23H29.1154V20.0964H26.2991V29.7617C26.2991 30.5116 26.4157 31.0116 26.649 31.3115V31.3115ZM35.2512 33.5529L29.6853 18.2216H32.4016L35.7678 28.1869C35.9011 28.5869 36.2344 29.7034 36.751 31.5531L37.2509 29.8867L37.8008 28.2036L41.2837 18.205H44L38.2841 33.5529H35.2512ZM18.4789 31.2531C17.679 32.4363 16.8291 33.6028 15.496 33.6361C14.1962 33.6695 13.7796 32.8696 12.2798 32.8696C10.7966 32.8696 10.33 33.6028 9.09687 33.6695C7.83037 33.7028 6.86384 32.3697 6.03062 31.1865C4.38084 28.7701 3.09768 24.3707 4.81412 21.3878C5.664 19.9047 7.19713 18.9715 8.8469 18.9548C10.0967 18.9381 11.2799 19.8214 12.0631 19.8214C12.8297 19.8214 14.2628 18.7715 15.7793 18.9215C16.4125 18.9548 18.1956 19.1881 19.3455 20.8379C19.2455 20.9045 17.2124 22.0877 17.2291 24.5374C17.2458 27.487 19.8121 28.4702 19.8287 28.4868C19.8121 28.5535 19.4121 29.8867 18.4789 31.2531V31.2531Z"/></g></svg>

<svg xmlns="http://www.w3.org/2000/svg" fill="none" aria-hidden="true" viewBox="0 0 48 48"><path fill="#000" d="M14.78 17.305c-.683.817-1.8 1.467-2.883 1.383-.166-1.116.384-2.283 1.017-3.016.716-.817 1.9-1.417 2.883-1.466.116 1.133-.35 2.282-1.017 3.1Zm11.87 14.006c.233.3.667.45 1.25.45.35 0 .833-.066 1.466-.2v1.884c-.833.233-1.7.35-2.583.35-2.05 0-3.066-1.167-3.066-3.483V20.08H21.95v-1.867h1.866v-2.416l2.466-1v3.433h2.833v1.866H26.3v9.666c0 .75.117 1.25.35 1.55Zm8.602 2.242-5.566-15.331h2.717l3.366 9.965c.133.4.466 1.516.983 3.366l.5-1.666.55-1.683 3.483-9.999H44l-5.716 15.348h-3.033Zm-16.772-2.3c-.8 1.183-1.65 2.35-2.983 2.383-1.3.033-1.716-.766-3.216-.766-1.483 0-1.95.733-3.183.8-1.267.033-2.233-1.3-3.066-2.484-1.65-2.416-2.933-6.815-1.217-9.798.85-1.483 2.383-2.417 4.033-2.433 1.25-.017 2.433.866 3.216.866.767 0 2.2-1.05 3.716-.9.634.034 2.417.267 3.567 1.917-.1.066-2.134 1.25-2.117 3.7.017 2.949 2.583 3.932 2.6 3.949-.017.067-.417 1.4-1.35 2.766Z"/></svg>
